svgs/duotone/book-copy.svg

<svg xmlns="http://www.w3.org/2000/svg" viewBox="0 0 576 512"><!-- Font Awesome Pro 6.0.0-alpha2 by @fontawesome - https://fontawesome.com License - https://fontawesome.com/license (Commercial License) --><defs><style>.fa-secondary{opacity:.4}</style></defs><path d="M360 448H97.711C81.77 448 66.996 437.106 64.438 421.372C61.178 401.323 76.566 384 96 384H177.805C166.781 365.096 160 343.416 160 320V96H96C42.98 96 0 138.98 0 192V416C0 469.02 42.98 512 96 512H360C373.254 512 384 501.255 384 488V472C384 458.745 373.254 448 360 448Z" class="fa-secondary"/><path d="M576 264V24C576 10.744 565.254 0 552 0H288C234.98 0 192 42.98 192 96V320C192 373.02 234.98 416 288 416H552C565.254 416 576 405.254 576 392V376C576 365.582 569.273 356.936 560 353.615V286.385C569.273 283.064 576 274.416 576 264ZM512 352H288C270.328 352 256 337.672 256 320C256 302.326 270.328 288 288 288H512V352Z" class="fa-primary"/></svg>

<svg xmlns="http://www.w3.org/2000/svg" viewBox="0 0 576 512"><!--! Font Awesome Pro 6.3.0 by @fontawesome - https://fontawesome.com License - https://fontawesome.com/license (Commercial License) Copyright 2023 Fonticons, Inc. --><defs><style>.fa-secondary{opacity:.4}</style></defs><path class="fa-primary" d="M576 240v-192C576 21.49 554.5 0 528 0H288C234.1 0 192 42.98 192 96v224c0 53.02 42.98 96 96 96h256c17.67 0 32-14.33 32-32c0-11.72-6.607-21.52-16-27.1V275.5C569.8 266.8 576 254.2 576 240zM512 352h-224c-17.67 0-32-14.33-32-32c0-17.67 14.33-32 32-32h224V352z"/><path class="fa-secondary" d="M352 448H97.38C81.89 448 67.6 437.6 64.63 422.4C60.63 401.9 76.22 384 96 384h81.8C166.8 365.1 160 343.4 160 320V96H96C42.98 96 0 138.1 0 192v224c0 53.02 42.98 96 96 96h256C369.7 512 384 497.7 384 480S369.7 448 352 448z"/></svg>
